public/landing/icon-arrow.svg

<svg width="11" height="12" viewBox="0 0 11 12" xmlns="http://www.w3.org/2000/svg" xmlns:xlink="http://www.w3.org/1999/xlink" xmlns:figma="http://www.figma.com/figma/ns"><title>Group</title><desc>Created using Figma</desc><g style="mix-blend-mode:normal" opacity=".4" figma:type="frame"><use xlink:href="#a" transform="translate(5)" fill="#DB6028" style="mix-blend-mode:normal" figma:type="rounded-rectangle"/><use xlink:href="#b" transform="translate(1 6)" fill="#DB6028" style="mix-blend-mode:normal" figma:type="vector"/></g><defs><path id="a" d="M0 0h1v11H0V0z"/><path id="b" d="M4.5 5l-.37165.33448.37165.41294.37165-.41294L4.5 5zM-.371647.334482L4.12835 5.33448l.7433-.66896L.371647-.334482l-.743294.668964zM4.87165 5.33448l4.5-4.999998-.7433-.668964-4.5 5.000002.7433.66896z"/></defs></svg>

<svg width="11" height="12" viewBox="0 0 11 12" version="1.1" xmlns="http://www.w3.org/2000/svg" xmlns:xlink="http://www.w3.org/1999/xlink" xmlns:figma="http://www.figma.com/figma/ns">
<title>Group</title>
<desc>Created using Figma</desc>
<g id="Canvas" transform="translate(-3512 46)" figma:type="canvas">
<g id="Group" style="mix-blend-mode:normal;" opacity="0.4" figma:type="frame">
<g id="Rectangle 2" style="mix-blend-mode:normal;" figma:type="rounded-rectangle">
<use xlink:href="#path0_fill" transform="translate(3517 -46)" fill="#DB6028" style="mix-blend-mode:normal;"/>
</g>
<g id="Vector" style="mix-blend-mode:normal;" figma:type="vector">
<use xlink:href="#path1_stroke" transform="translate(3513 -40)" fill="#DB6028" style="mix-blend-mode:normal;"/>
</g>
</g>
</g>
<defs>
<path id="path0_fill" d="M 0 0L 1 0L 1 11L 0 11L 0 0Z"/>
<path id="path1_stroke" d="M 4.5 5L 4.12835 5.33448L 4.5 5.74742L 4.87165 5.33448L 4.5 5ZM -0.371647 0.334482L 4.12835 5.33448L 4.87165 4.66552L 0.371647 -0.334482L -0.371647 0.334482ZM 4.87165 5.33448L 9.37165 0.334482L 8.62835 -0.334482L 4.12835 4.66552L 4.87165 5.33448Z"/>
</defs>
</svg>
